frontend/public/file.svg

<svg width="18" height="20" viewBox="0 0 18 20" fill="none" xmlns="http://www.w3.org/2000/svg">
<path d="M18 6V18.9932C18 19.5501 17.5552 20 17.0066 20H0.9934C0.44495 20 0 19.556 0 19.0082V0.9918C0 0.45531 0.4487 0 1.00221 0H11.9968L18 6ZM16 7H11V2H2V18H16V7ZM5 5H8V7H5V5ZM5 9H13V11H5V9ZM5 13H13V15H5V13Z" fill="#284CE5"/>
</svg>

<svg xmlns="http://www.w3.org/2000/svg" width="18" height="20" fill="none"><path fill="#284CE5" d="M18 6v12.993A1 1 0 0 1 17.007 20H.993A.993.993 0 0 1 0 19.008V.992C0 .455.449 0 1.002 0h10.995zm-2 1h-5V2H2v16h14zM5 5h3v2H5zm0 4h8v2H5zm0 4h8v2H5z"/></svg>
